public/svg/icon/eur.svg

<svg xmlns="http://www.w3.org/2000/svg" xmlns:xlink="http://www.w3.org/1999/xlink" width="32" height="32" viewBox="0 0 32 32"><defs><linearGradient id="eur-c" x1="50%" x2="50%" y1="0%" y2="100%"><stop offset="0%" stop-color="#FFF" stop-opacity=".5"/><stop offset="100%" stop-opacity=".5"/></linearGradient><circle id="eur-b" cx="16" cy="15" r="15"/><filter id="eur-a" width="111.7%" height="111.7%" x="-5.8%" y="-4.2%" filterUnits="objectBoundingBox"><feOffset dy=".5" in="SourceAlpha" result="shadowOffsetOuter1"/><feGaussianBlur in="shadowOffsetOuter1" result="shadowBlurOuter1" stdDeviation=".5"/><feComposite in="shadowBlurOuter1" in2="SourceAlpha" operator="out" result="shadowBlurOuter1"/><feColorMatrix in="shadowBlurOuter1" values="0 0 0 0 0 0 0 0 0 0 0 0 0 0 0 0 0 0 0.199473505 0"/></filter><path id="eur-e" d="M8,18.0038585 L8.81094127,16.0012862 L9.66693484,16.0012862 C9.64440858,15.6463005 9.63314562,15.3028955 9.63314562,14.9710611 C9.63314562,14.5234704 9.65191722,14.1067543 9.68946098,13.7209003 L8,13.7209003 L8.81094127,11.718328 L10.0836685,11.718328 C11.2700515,7.90609026 13.9431275,6 18.1029767,6 C19.4695697,6 20.7685645,6.17749019 22,6.53247588 L22,9.05594855 C20.843652,8.53890417 19.6159893,8.28038585 18.3169751,8.28038585 C15.8240691,8.28038585 14.2209743,9.4263551 13.5076428,11.718328 L20.930008,11.718328 L20.1190668,13.7209003 L13.0233307,13.7209003 C12.9857869,13.9678469 12.9670153,14.2996764 12.9670153,14.7163987 C12.9670153,15.1948577 12.9820326,15.6231492 13.0120676,16.0012862 L19.1954948,16.0012862 L18.3958166,18.0038585 L13.4400644,18.0038585 C13.9731858,19.392933 14.6226832,20.3594828 15.388576,20.903537 C16.1544688,21.4475911 17.246976,21.7196141 18.6661303,21.7196141 C19.679812,21.7196141 20.7910908,21.4726713 22,20.9787781 L22,23.3517685 C20.8511608,23.783925 19.4845882,24 17.9002414,24 C13.7328834,24 11.0973507,22.0013062 9.99356396,18.0038585 L8,18.0038585 Z"/><filter id="eur-d" width="125%" height="119.4%" x="-12.5%" y="-6.9%" filterUnits="objectBoundingBox"><feOffset dy=".5" in="SourceAlpha" result="shadowOffsetOuter1"/><feGaussianBlur in="shadowOffsetOuter1" result="shadowBlurOuter1" stdDeviation=".5"/><feColorMatrix in="shadowBlurOuter1" values="0 0 0 0 0 0 0 0 0 0 0 0 0 0 0 0 0 0 0.204257246 0"/></filter></defs><g fill="none" fill-rule="evenodd"><use fill="#000" filter="url(#eur-a)" xlink:href="#eur-b"/><use fill="#0F8FF8" xlink:href="#eur-b"/><use fill="url(#eur-c)" style="mix-blend-mode:soft-light" xlink:href="#eur-b"/><circle cx="16" cy="15" r="14.5" stroke="#000" stroke-opacity=".097"/><g><use fill="#000" filter="url(#eur-d)" xlink:href="#eur-e"/><use fill="#FFF" xlink:href="#eur-e"/></g></g></svg>

<svg xmlns="http://www.w3.org/2000/svg" xmlns:xlink="http://www.w3.org/1999/xlink" width="32" height="32" viewBox="0 0 32 32"><defs><filter id="a" width="111.7%" height="111.7%" x="-5.8%" y="-4.2%" filterUnits="objectBoundingBox"><feOffset dy=".5" in="SourceAlpha" result="shadowOffsetOuter1"/><feGaussianBlur in="shadowOffsetOuter1" result="shadowBlurOuter1" stdDeviation=".5"/><feComposite in="shadowBlurOuter1" in2="SourceAlpha" operator="out" result="shadowBlurOuter1"/><feColorMatrix in="shadowBlurOuter1" values="0 0 0 0 0 0 0 0 0 0 0 0 0 0 0 0 0 0 0.199473505 0"/></filter><filter id="d" width="125%" height="119.4%" x="-12.5%" y="-6.9%" filterUnits="objectBoundingBox"><feOffset dy=".5" in="SourceAlpha" result="shadowOffsetOuter1"/><feGaussianBlur in="shadowOffsetOuter1" result="shadowBlurOuter1" stdDeviation=".5"/><feColorMatrix in="shadowBlurOuter1" values="0 0 0 0 0 0 0 0 0 0 0 0 0 0 0 0 0 0 0.204257246 0"/></filter><linearGradient id="c" x1="50%" x2="50%" y1="0%" y2="100%"><stop offset="0%" stop-color="#FFF" stop-opacity=".5"/><stop offset="100%" stop-opacity=".5"/></linearGradient><circle id="b" cx="16" cy="15" r="15"/><path id="e" d="M8 18.004L8.81 16h.857a16.279 16.279 0 01-.034-1.03c0-.448.019-.864.056-1.25H8l.81-2.003h1.274C11.27 7.906 13.944 6 18.103 6c1.367 0 2.666.177 3.897.532v2.524a8.92 8.92 0 00-3.683-.776c-2.493 0-4.096 1.146-4.81 3.438h7.423l-.81 2.003h-7.097a6.938 6.938 0 00-.056.995c0 .479.015.907.045 1.285h6.183l-.8 2.003H13.44c.533 1.389 1.183 2.355 1.949 2.9.765.544 1.858.816 3.277.816 1.014 0 2.125-.247 3.334-.741v2.373c-1.149.432-2.515.648-4.1.648-4.167 0-6.803-1.999-7.906-5.996H8z"/></defs><g fill="none" fill-rule="evenodd"><use fill="#000" filter="url(#a)" xlink:href="#b"/><use fill="#0F8FF8" xlink:href="#b"/><use fill="url(#c)" style="mix-blend-mode:soft-light" xlink:href="#b"/><circle cx="16" cy="15" r="14.5" stroke="#000" stroke-opacity=".097"/><use fill="#000" filter="url(#d)" xlink:href="#e"/><use fill="#FFF" xlink:href="#e"/></g></svg>
